X: 187
T: Zou NIgong
L: 1/8
M: 2/4
K: Bb
c2c c [I:setbarnb 1]| 
d c d f | 
c B G F | 
D4 | 
d d d c | 
G B c d | 
c c/ G/ F D | 
F4 |]

@@@ Tune index: 9061
